assets/instagram.svg

<svg fill="#FFFFFF" xmlns="http://www.w3.org/2000/svg"  viewBox="0 0 24 24" width="48px" height="48px"><path d="M 8 3 C 5.2475888 3 3 5.2475888 3 8 L 3 16 C 3 18.752411 5.2475888 21 8 21 L 16 21 C 18.752411 21 21 18.752411 21 16 L 21 8 C 21 5.2475888 18.752411 3 16 3 L 8 3 z M 8 4.5 L 16 4.5 C 17.941589 4.5 19.5 6.0584112 19.5 8 L 19.5 16 C 19.5 17.941589 17.941589 19.5 16 19.5 L 8 19.5 C 6.0584112 19.5 4.5 17.941589 4.5 16 L 4.5 8 C 4.5 6.0584112 6.0584112 4.5 8 4.5 z M 17.25 6 A 0.75 0.75 0 0 0 17.25 7.5 A 0.75 0.75 0 0 0 17.25 6 z M 12 7 C 10.395834 7 9.0977407 7.6285667 8.2519531 8.5800781 C 7.4061656 9.5315896 7 10.770833 7 12 C 7 13.229167 7.4061656 14.46841 8.2519531 15.419922 C 9.0977407 16.371433 10.395834 17 12 17 C 13.604166 17 14.902259 16.371433 15.748047 15.419922 C 16.593834 14.46841 17 13.229167 17 12 C 17 10.770833 16.593834 9.5315896 15.748047 8.5800781 C 14.902259 7.6285667 13.604166 7 12 7 z M 12 8.5 C 13.229166 8.5 14.056075 8.9339333 14.626953 9.5761719 C 15.197832 10.21841 15.5 11.104167 15.5 12 C 15.5 12.895833 15.197832 13.78159 14.626953 14.423828 C 14.056075 15.066067 13.229166 15.5 12 15.5 C 10.770834 15.5 9.9439254 15.066067 9.3730469 14.423828 C 8.8021684 13.78159 8.5 12.895833 8.5 12 C 8.5 11.104167 8.8021684 10.21841 9.3730469 9.5761719 C 9.9439254 8.9339333 10.770834 8.5 12 8.5 z"/></svg>

<svg xmlns="http://www.w3.org/2000/svg" xmlns:xlink="http://www.w3.org/1999/xlink" viewBox="0,0,256,256" width="16px" height="16px"><g fill="#feb52b" fill-rule="nonzero" stroke="none" stroke-width="1" stroke-linecap="butt" stroke-linejoin="miter" stroke-miterlimit="10" stroke-dasharray="" stroke-dashoffset="0" font-family="none" font-weight="none" font-size="none" text-anchor="none" style="mix-blend-mode: normal"><g transform="scale(10.66667,10.66667)"><path d="M8,3c-2.75241,0 -5,2.24759 -5,5v8c0,2.75241 2.24759,5 5,5h8c2.75241,0 5,-2.24759 5,-5v-8c0,-2.75241 -2.24759,-5 -5,-5zM8,4.5h8c1.94159,0 3.5,1.55841 3.5,3.5v8c0,1.94159 -1.55841,3.5 -3.5,3.5h-8c-1.94159,0 -3.5,-1.55841 -3.5,-3.5v-8c0,-1.94159 1.55841,-3.5 3.5,-3.5zM17.25,6c-0.41421,0 -0.75,0.33579 -0.75,0.75c0,0.41421 0.33579,0.75 0.75,0.75c0.41421,0 0.75,-0.33579 0.75,-0.75c0,-0.41421 -0.33579,-0.75 -0.75,-0.75zM12,7c-1.60417,0 -2.90226,0.62857 -3.74805,1.58008c-0.84579,0.95151 -1.25195,2.19075 -1.25195,3.41992c0,1.22917 0.40617,2.46841 1.25195,3.41992c0.84579,0.95151 2.14388,1.58008 3.74805,1.58008c1.60417,0 2.90226,-0.62857 3.74805,-1.58008c0.84579,-0.95151 1.25195,-2.19075 1.25195,-3.41992c0,-1.22917 -0.40617,-2.46841 -1.25195,-3.41992c-0.84579,-0.95151 -2.14388,-1.58008 -3.74805,-1.58008zM12,8.5c1.22917,0 2.05608,0.43393 2.62695,1.07617c0.57088,0.64224 0.87305,1.528 0.87305,2.42383c0,0.89583 -0.30217,1.78159 -0.87305,2.42383c-0.57088,0.64224 -1.39779,1.07617 -2.62695,1.07617c-1.22917,0 -2.05607,-0.43393 -2.62695,-1.07617c-0.57088,-0.64224 -0.87305,-1.528 -0.87305,-2.42383c0,-0.89583 0.30217,-1.78159 0.87305,-2.42383c0.57088,-0.64224 1.39779,-1.07617 2.62695,-1.07617z"></path></g></g></svg>
